X:35
T:AIR XXXV. Bonny Dundee.
B:Joseph Mitchell: "The Highland Fair" (1731)
Z:Jack Campin <http://www.campin.me.uk/>
N:The repeat sign is marked two-sided; the words
N:require only the first strain to be repeated.
N:Last bar is printed as |dc/B/A/ G2|]
M:6/4
L:1/4
K:GMin
 D|DGG G2B|AGF ABc |d2d d2g|d>cB/A/  G2:|
=e|fag fag|fFF ABc |ded d2g|a>g^f/e/ d2
=e|fag fag|fFF A>Bc|d2d d2g|d>cB/A/  G2|]
